icons/pregnant_0812w_fill.svg

<svg width="48" height="48" viewBox="0 0 48 48" fill="none" xmlns="http://www.w3.org/2000/svg">
<path d="M11.7884 35.8692C12.2064 35.5082 12.2526 34.8767 11.8915 34.4587C10.0106 32.2811 8.75174 29.6365 8.24754 26.8036C7.74334 23.9706 8.01247 21.054 9.02658 18.3612C10.0407 15.6683 11.7622 13.2987 14.0099 11.5021L14.036 11.4813C14.1751 11.6628 14.3141 11.8412 14.4488 12.014C14.5646 12.1625 14.6773 12.3072 14.784 12.446C15.2027 12.991 15.5422 13.4638 15.7688 13.8945C15.9973 14.3289 16.0556 14.6194 16.037 14.8168C16.0223 14.9726 15.9493 15.1974 15.587 15.4955L14.8397 16.1103C14.2504 16.5951 13.8792 17.2101 13.7772 17.8855C13.6759 18.5554 13.8528 19.2014 14.2086 19.7228C14.9233 20.7704 16.322 21.3002 17.8157 20.9022C17.9486 20.8668 18.0451 20.8456 18.1145 20.8332C18.1548 20.8986 18.2049 20.9862 18.2769 21.1136L18.8506 22.3855L15.6071 23.447C14.5573 23.7905 13.9848 24.9201 14.3283 25.9699C14.6719 27.0196 15.8014 27.5921 16.8512 27.2486L18.5827 26.6819L20.0852 30.1251C20.3888 30.8209 21.0601 31.2848 21.8182 31.3228C24.8949 31.4768 27.2737 30.3494 28.7725 28.7507C29.5075 27.9667 30.0366 27.0615 30.3143 26.1405C30.5824 25.2509 30.6613 24.1763 30.2378 23.1849C29.8807 22.3488 29.0047 21.8588 28.1054 21.9921L26.6252 22.2114L25.8994 19.9866C25.5569 18.9364 24.4279 18.3628 23.3778 18.7054C22.3277 19.0479 21.7541 20.1769 22.0966 21.227L23.3462 25.0576C23.6326 25.9358 24.4795 26.497 25.3879 26.4325C24.8688 26.8239 24.1528 27.1575 23.2094 27.2833L21.5217 23.4158C21.4894 23.3416 21.453 23.2703 21.413 23.2021L20.0629 20.209L20.0212 20.1351C19.9231 19.961 19.8108 19.7618 19.6925 19.5945C19.5594 19.4064 19.3643 19.1768 19.0662 19.0152C18.4636 18.6885 17.8017 18.8361 17.3008 18.9696C16.5451 19.171 16.0509 18.8745 15.8607 18.5957C15.764 18.454 15.7354 18.3118 15.7547 18.1842C15.7732 18.0621 15.8484 17.8703 16.1104 17.6548L16.8576 17.04C17.5409 16.4779 17.9535 15.7964 18.0281 15.0044C18.0988 14.254 17.8501 13.5551 17.5388 12.9634C17.2256 12.3679 16.7927 11.7777 16.3699 11.2275C16.2453 11.0653 16.1218 10.9068 15.9999 10.7504L15.9992 10.7495C15.8907 10.6103 15.7831 10.4722 15.6774 10.335C17.5408 9.20006 19.6231 8.45441 21.7983 8.15221C24.6484 7.75625 27.5526 8.13624 30.2049 9.25215C32.8572 10.3681 35.1595 12.1786 36.8693 14.4931C38.579 16.8075 39.633 19.5402 39.9201 22.4034C40.2073 25.2665 39.717 28.1541 38.5009 30.762C38.2675 31.2625 38.484 31.8575 38.9846 32.0909C39.4851 32.3243 40.0801 32.1078 40.3135 31.6072C41.6816 28.6733 42.2332 25.4248 41.9102 22.2038C41.5871 18.9827 40.4014 15.9084 38.4779 13.3047C36.5544 10.7009 33.9644 8.66407 30.9805 7.40867C27.9967 6.15327 24.7295 5.72578 21.5231 6.17124C18.3167 6.6167 15.2898 7.91861 12.7612 9.93984C10.2325 11.9611 8.29577 14.6268 7.1549 17.6563C6.01403 20.6858 5.71126 23.9669 6.27848 27.154C6.84571 30.3411 8.26193 33.3163 10.378 35.7661C10.739 36.184 11.3705 36.2302 11.7884 35.8692Z" fill="black"/>
<path d="M35.8685 35.2109C35.4327 35.2835 35.1383 35.6957 35.2109 36.1315L36.0442 41.1315C36.0998 41.4653 36.3594 41.7279 36.6925 41.7875C37.0255 41.8471 37.3601 41.6907 37.5279 41.3969L38.5 39.6958L39.4721 41.3969C39.6399 41.6907 39.9745 41.8471 40.3075 41.7875C40.6406 41.7279 40.9002 41.4653 40.9558 41.1315L41.7891 36.1315C41.8618 35.6957 41.5673 35.2835 41.1315 35.2109C40.6957 35.1383 40.2835 35.4327 40.2109 35.8685L39.7468 38.6528L39.1946 37.6864C39.0522 37.4372 38.7871 37.2833 38.5 37.2833C38.2129 37.2833 37.9478 37.4372 37.8054 37.6864L37.2532 38.6528L36.7891 35.8685C36.7165 35.4327 36.3043 35.1383 35.8685 35.2109Z" fill="black"/>
<path d="M26.8417 36C26.8417 35.6764 26.6468 35.3847 26.3478 35.2609C26.0489 35.1371 25.7048 35.2055 25.476 35.4343L24.4343 36.476C24.1219 36.7884 24.1219 37.2949 24.4343 37.6074C24.6528 37.8258 24.9661 37.8915 25.2417 37.8045V41C25.2417 41.4418 25.5998 41.8 26.0417 41.8C26.4835 41.8 26.8417 41.4418 26.8417 41V36Z" fill="black"/>
<path fill-rule="evenodd" clip-rule="evenodd" d="M19.8619 38.5C20.1346 38.1591 20.3 37.7292 20.3 37.25C20.3 36.0776 19.3097 35.2 18.1805 35.2H17.3195C16.1903 35.2 15.2 36.0776 15.2 37.25C15.2 37.7292 15.3654 38.1591 15.6381 38.5C15.3654 38.8409 15.2 39.2708 15.2 39.75C15.2 40.9224 16.1903 41.8 17.3195 41.8H18.1805C19.3097 41.8 20.3 40.9224 20.3 39.75C20.3 39.2708 20.1346 38.8409 19.8619 38.5ZM17.3195 36.8C16.9912 36.8 16.8 37.0417 16.8 37.25C16.8 37.4583 16.9912 37.7 17.3195 37.7H18.1805C18.5088 37.7 18.7 37.4583 18.7 37.25C18.7 37.0417 18.5088 36.8 18.1805 36.8H17.3195ZM18.7 39.75C18.7 39.5417 18.5088 39.3 18.1805 39.3H17.3195C16.9912 39.3 16.8 39.5417 16.8 39.75C16.8 39.9583 16.9912 40.2 17.3195 40.2H18.1805C18.5088 40.2 18.7 39.9583 18.7 39.75Z" fill="black"/>
<path d="M32.0485 36.9807C32.1672 37.0796 32.2 37.1783 32.2 37.25C32.2 37.3257 32.1623 37.4356 32.0217 37.5404C32.0138 37.5464 32.006 37.5524 31.9983 37.5586L28.4983 40.3769C28.234 40.5897 28.1327 40.946 28.2455 41.266C28.3583 41.586 28.6607 41.8 29 41.8H33C33.4418 41.8 33.8 41.4418 33.8 41C33.8 40.5582 33.4418 40.2 33 40.2H31.2691L32.9915 38.8131C33.4579 38.4597 33.8 37.9085 33.8 37.25C33.8 35.9874 32.6275 35.2 31.5 35.2H30.5C29.585 35.2 28.7018 35.6889 28.3489 36.521C28.1763 36.9277 28.3662 37.3973 28.773 37.5698C29.1797 37.7424 29.6493 37.5525 29.8218 37.1457C29.8808 37.0068 30.1088 36.8 30.5 36.8H31.5C31.7368 36.8 31.9282 36.8804 32.0485 36.9807Z" fill="black"/>
<path d="M22 38.2C21.5582 38.2 21.2 38.5582 21.2 39C21.2 39.4418 21.5582 39.8 22 39.8H23C23.4418 39.8 23.8 39.4418 23.8 39C23.8 38.5582 23.4418 38.2 23 38.2H22Z" fill="black"/>
<path d="M34.9423 19.8092C33.9628 21.6769 31.6547 22.397 29.787 21.4175C27.9193 20.438 27.1992 18.1299 28.1787 16.2622C29.1581 14.3945 31.4662 13.6744 33.334 14.6539C35.2017 15.6333 35.9218 17.9414 34.9423 19.8092Z" fill="black"/>
</svg>

<svg
  xmlns="http://www.w3.org/2000/svg"
  width="24"
  height="24"
  viewBox="0 0 24 24"
  fill="none"
  stroke="currentColor"
  stroke-width="2"
  stroke-linecap="round"
  stroke-linejoin="round"
>
  <path d="M11.788 35.87a1 1 0 0 0 .104-1.411 16 16 0 0 1 2.118-22.957l.026-.02q.21.272.413.532l.335.432c.419.545.758 1.018.985 1.449.228.434.287.724.268.922-.015.156-.088.38-.45.678l-.747.615c-.59.485-.96 1.1-1.063 1.776-.101.67.076 1.315.432 1.837.714 1.047 2.113 1.577 3.607 1.18q.197-.052.299-.07c.04.066.09.153.162.28l.574 1.273-3.244 1.061a2 2 0 0 0 1.244 3.802l1.732-.567 1.502 3.443a2 2 0 0 0 1.733 1.198c3.077.154 5.456-.974 6.954-2.572.736-.784 1.265-1.69 1.542-2.61.268-.89.347-1.965-.076-2.956a2 2 0 0 0-2.133-1.193l-1.48.22-.726-2.225a2 2 0 1 0-3.802 1.24l1.25 3.83a2 2 0 0 0 2.04 1.376c-.518.39-1.234.724-2.178.85l-1.687-3.867a2 2 0 0 0-.109-.214l-1.35-2.993-.042-.074a6 6 0 0 0-.329-.54 1.86 1.86 0 0 0-.626-.58c-.602-.326-1.264-.179-1.765-.045-.756.201-1.25-.095-1.44-.374a.57.57 0 0 1-.106-.412c.018-.122.093-.314.355-.53l.748-.614c.683-.562 1.095-1.244 1.17-2.036.07-.75-.178-1.449-.49-2.04-.312-.596-.745-1.186-1.168-1.737L16 10.75l-.323-.415a16 16 0 0 1 22.824 20.427 1 1 0 1 0 1.813.845 18 18 0 1 0-29.936 4.16 1 1 0 0 0 1.41.102" />
  <path d="M35.869 35.21a.8.8 0 0 0-.658.922l.833 5a.8.8 0 0 0 1.484.265l.972-1.701.972 1.7a.8.8 0 0 0 1.484-.264l.833-5a.8.8 0 1 0-1.578-.264l-.464 2.785-.552-.967a.8.8 0 0 0-1.39 0l-.552.967-.464-2.785a.8.8 0 0 0-.92-.657" />
  <path d="M26.842 36a.8.8 0 0 0-1.366-.566l-1.042 1.042a.8.8 0 0 0 .808 1.328V41a.8.8 0 1 0 1.6 0z" />
  <path
    fill-rule="evenodd"
    d="M19.862 38.5c.273-.34.438-.77.438-1.25 0-1.172-.99-2.05-2.12-2.05h-.86c-1.13 0-2.12.878-2.12 2.05 0 .48.165.91.438 1.25-.273.34-.438.77-.438 1.25 0 1.172.99 2.05 2.12 2.05h.86c1.13 0 2.12-.878 2.12-2.05 0-.48-.165-.91-.438-1.25m-2.542-1.7c-.329 0-.52.242-.52.45s.191.45.52.45h.86c.329 0 .52-.242.52-.45s-.191-.45-.52-.45zm1.38 2.95c0-.208-.191-.45-.52-.45h-.86c-.329 0-.52.242-.52.45s.191.45.52.45h.86c.329 0 .52-.242.52-.45"
    clip-rule="evenodd"
  />
  <path d="M32.048 36.98c.12.1.152.198.152.27 0 .076-.038.186-.178.29l-.024.019-3.5 2.818A.8.8 0 0 0 29 41.8h4a.8.8 0 0 0 0-1.6h-1.73l1.722-1.387c.466-.353.808-.905.808-1.563 0-1.263-1.172-2.05-2.3-2.05h-1c-.915 0-1.798.489-2.151 1.321a.8.8 0 1 0 1.473.625c.059-.14.287-.346.678-.346h1a.86.86 0 0 1 .548.18" />
  <path d="M22 38.2a.8.8 0 0 0 0 1.6h1a.8.8 0 0 0 0-1.6z" />
  <path d="M34.942 19.81a3.819 3.819 0 1 1-6.763-3.548 3.819 3.819 0 0 1 6.763 3.547" />
</svg>
